svgs/hype.svg

<svg xmlns="http://www.w3.org/2000/svg" viewBox="0 0 192 192"><path d="M87.3 37.483c31.39 0 82.741 20.905 82.741 57.403 0 33.071-75.064 53.462-101.678 53.462-26.614 0-51.863-12.166-51.863-42.324 0-30.158 27.296-68.541 70.8-68.541Z" fill="none" stroke="#000" stroke-width="8" stroke-linecap="round" stroke-linejoin="round"/><path d="M16.5 106.024c0 40.439 11.43 54.661 41.115 54.661 29.684 0 84.106-26.788 105.082-48.306M43.435 53.05c22.539-18.765 36.017-21.735 57.683-21.735 26.102 0 74.382 16.107 74.382 51.748 0 19.077-12.804 29.316-12.804 29.316" fill="none" stroke="#000" stroke-width="8" stroke-linecap="round" stroke-linejoin="round"/><path d="M98.782 109.853V79.462h9.906c5.6 0 10.14 4.57 10.14 10.207 0 5.637-4.54 10.207-10.14 10.207h-9.906M42.049 79.462v30.391m20.045-30.391v30.391M42.049 94.6h20.045M90.79 79.462 80.767 94.658 70.744 79.462M80.767 109.853V94.658m46.053 15.195h15.129M126.82 79.462h15.129M126.82 94.658h9.864m-9.864-15.196v30.391" fill="none" stroke="#000" stroke-width="8" stroke-linecap="round" stroke-linejoin="round"/></svg>

<svg
    xmlns="http://www.w3.org/2000/svg"
    viewBox="0 0 192 192"
    id="vector">
    <path
        id="path"
        d="M 87.3 37.483 C 118.69 37.483 170.041 58.388 170.041 94.886 C 170.041 127.957 94.977 148.348 68.363 148.348 C 41.749 148.348 16.5 136.182 16.5 106.024 C 16.5 75.866 43.796 37.483 87.3 37.483 Z"
        fill="none"
        stroke="#000000"
        stroke-width="8"
        stroke-linecap="round"
        stroke-linejoin="round"/>
    <path
        id="path_1"
        d="M 16.5 106.024 C 16.5 146.463 27.93 160.685 57.615 160.685 C 87.299 160.685 141.721 133.897 162.697 112.379 M 43.435 53.05 C 65.974 34.285 79.452 31.315 101.118 31.315 C 127.22 31.315 175.5 47.422 175.5 83.063 C 175.5 102.14 162.696 112.379 162.696 112.379"
        fill="none"
        stroke="#000000"
        stroke-width="8"
        stroke-linecap="round"
        stroke-linejoin="round"/>
    <path
        id="path_2"
        d="M 98.782 109.853 L 98.782 79.462 L 108.688 79.462 C 114.288 79.462 118.828 84.032 118.828 89.669 C 118.828 95.306 114.288 99.876 108.688 99.876 L 98.782 99.876 M 42.049 79.462 L 42.049 109.853 M 62.094 79.462 L 62.094 109.853 M 42.049 94.6 L 62.094 94.6"
        fill="none"
        stroke="#000000"
        stroke-width="8"
        stroke-linecap="round"
        stroke-linejoin="round"/>
    <path
        id="path_3"
        d="M 90.79 79.462 L 80.767 94.658 L 70.744 79.462"
        fill="none"
        stroke="#000000"
        stroke-width="8"
        stroke-linecap="round"
        stroke-linejoin="round"/>
    <path
        id="path_4"
        d="M 80.767 109.853 L 80.767 94.658 M 126.82 109.853 L 141.949 109.853 M 126.82 79.462 L 141.949 79.462 M 126.82 94.658 L 136.684 94.658 M 126.82 79.462 L 126.82 109.853"
        fill="none"
        stroke="#000000"
        stroke-width="8"
        stroke-linecap="round"
        stroke-linejoin="round"/>
</svg>
